Images/My_Logo.svg

<svg width="78" height="67" viewBox="0 0 78 67" fill="none" xmlns="http://www.w3.org/2000/svg">
<rect width="78" height="67" fill="white"/>
<g clip-path="url(#clip0_425_3440)">
<path d="M39.0006 65.0012C56.6741 65.0012 71.0012 50.6741 71.0012 33.0006C71.0012 15.3272 56.6741 1 39.0006 1C21.3272 1 7 15.3272 7 33.0006C7 50.6741 21.3272 65.0012 39.0006 65.0012Z" fill="black"/>
<path d="M11.2338 32.3258C11.5052 21.7728 17.9468 12.0378 27.5813 7.70342C28.1532 7.44653 28.8221 7.53256 29.165 8.11904C29.457 8.61706 29.3201 9.44589 28.7494 9.70277C27.6552 10.1947 26.5937 10.7546 25.5734 11.3871C21.5614 13.876 18.3067 17.4736 16.1922 21.6904C14.0184 26.0248 13.1859 30.9505 13.6791 35.7659C14.5951 44.7242 20.4902 52.6247 28.6609 56.306C37.04 60.0817 47.0695 58.8239 54.3799 53.3275C61.6479 47.8638 65.4479 38.6074 64.2446 29.6127C62.9796 20.16 56.2629 12.0172 47.2513 8.92848C46.6576 8.72491 46.2686 8.13964 46.4431 7.50469C46.6018 6.92791 47.2755 6.49411 47.8669 6.69647C49.0847 7.11451 50.2794 7.6089 51.433 8.18326C60.6979 12.7963 66.7081 22.5193 66.7759 32.8529C66.8414 42.7443 61.4504 52.1352 52.8883 57.0851C44.2595 62.0738 33.2655 61.9902 24.7204 56.8524C16.2225 51.7438 10.9793 42.2462 11.235 32.327L11.2338 32.3258Z" fill="white"/>
<path d="M33.7405 18.0952C33.7405 18.7968 33.1952 19.3639 32.5215 19.3639C31.849 19.3639 31.3025 18.7956 31.3025 18.0952V6.50501C31.3025 5.80342 31.8478 5.23633 32.5215 5.23633C33.194 5.23633 33.7405 5.80463 33.7405 6.50501V18.0952Z" fill="white"/>
<path d="M44.5988 18.0952C44.5988 18.7968 44.0535 19.3639 43.3798 19.3639C42.7073 19.3639 42.1608 18.7956 42.1608 18.0952V6.50501C42.1608 5.80342 42.706 5.23633 43.3798 5.23633C44.0523 5.23633 44.5988 5.80463 44.5988 6.50501V18.0952Z" fill="white"/>
<path d="M30.5584 24.0655H25.9538L28.2561 24.709V40.1501H23.6515V22.7787L22.8845 22.1353H39.7688C40.4037 22.1353 40.9454 22.2625 41.3961 22.5145C41.8469 22.7678 42.0711 23.0695 42.0711 23.4221V40.1501H37.4665V24.0655H32.8619L35.1642 24.709V40.1501H30.5596V24.0655H30.5584Z" fill="white"/>
<path d="M50.512 31.1421L45.9074 32.4289H48.2097V40.1501H43.6052V22.7787L42.8381 22.1353H48.2097V29.8564L52.8143 28.5695H50.512V22.1353H55.1166V40.1501H50.512V31.1433V31.1421Z" fill="white"/>
<path d="M28.1422 45.2637C28.1422 46.908 26.8566 47.8023 25.8981 47.8023H23.1777V42.7979H25.9502C27.0722 42.7979 28.1422 43.7345 28.1422 45.2649V45.2637ZM26.6021 45.2565C26.6021 44.4482 26.1392 44.1199 25.434 44.1199H24.7033V46.4791H25.4861C26.1259 46.4791 26.6021 46.0077 26.6021 45.2565Z" fill="white"/>
<path d="M30.19 44.1123V44.6346H32.6946V45.9578H30.19V46.4873H32.6946V47.8033H28.6632V42.7988H32.6946V44.1148H30.19V44.1123Z" fill="white"/>
<path d="M33.2036 46.4791H35.5846C35.787 46.4791 35.8851 46.3785 35.8851 46.2149C35.8851 46.0514 35.787 45.958 35.5785 45.958H34.4953C33.7319 45.958 33.1127 45.3861 33.1127 44.3779C33.1127 43.2195 33.8373 42.7979 34.5667 42.7979H37.2677V44.1211H34.9388C34.763 44.1211 34.6382 44.1926 34.6382 44.3707C34.6382 44.5488 34.7618 44.6348 34.9388 44.6348H35.9566C36.8303 44.6348 37.4107 45.1995 37.4107 46.2077C37.4107 47.1589 36.7588 47.8023 35.9106 47.8023H33.1842L33.2036 46.4791Z" fill="white"/>
<path d="M37.933 42.7964H39.4598V47.8008H37.933V42.7964Z" fill="white"/>
<path d="M40.0148 45.2988C40.0148 43.8471 41.052 42.7178 42.4346 42.7178C43.8172 42.7178 44.6921 43.6763 44.7635 44.8407H43.3022C43.2634 44.562 42.9241 44.1755 42.3958 44.1755C41.8675 44.1755 41.424 44.5899 41.424 45.2697C41.424 45.9495 41.8869 46.399 42.3764 46.399C42.7545 46.399 43.0162 46.256 43.1847 45.9555H42.3825V45.426H44.7696C44.7563 46.7419 43.8172 47.8785 42.4346 47.8785C41.052 47.8785 40.0148 46.7565 40.0148 45.2976V45.2988Z" fill="white"/>
<path d="M45.2919 42.7964H46.8186L48.6326 45.3992H48.6787V42.7964H50.2054V47.8008H48.6787L46.872 45.2841H46.8199V47.8008H45.2931V42.7964H45.2919Z" fill="white"/>
<path d="M50.7131 46.4791H53.0941C53.2965 46.4791 53.3946 46.3785 53.3946 46.2149C53.3946 46.0514 53.2965 45.958 53.0881 45.958H52.0048C51.2414 45.958 50.6222 45.3861 50.6222 44.3779C50.6222 43.2195 51.3468 42.7979 52.0763 42.7979H54.7772V44.1211H52.4483C52.2726 44.1211 52.1478 44.1926 52.1478 44.3707C52.1478 44.5488 52.2714 44.6348 52.4483 44.6348H53.4661C54.3398 44.6348 54.9202 45.1995 54.9202 46.2077C54.9202 47.1589 54.2683 47.8023 53.4201 47.8023H50.6937L50.7131 46.4791Z" fill="white"/>
</g>
<defs>
<clipPath id="clip0_425_3440">
<rect width="64" height="64" fill="white" transform="translate(7 1)"/>
</clipPath>
</defs>
</svg>

<?xml version="1.0" encoding="utf-8"?>
<!-- Generator: Adobe Illustrator 28.0.0, SVG Export Plug-In . SVG Version: 6.00 Build 0)  -->
<svg version="1.1" id="Layer_1" xmlns="http://www.w3.org/2000/svg" xmlns:xlink="http://www.w3.org/1999/xlink" x="0px" y="0px"
	 viewBox="0 0 78 67" style="enable-background:new 0 0 78 67;" xml:space="preserve">
<style type="text/css">
	.st0{clip-path:url(#SVGID_00000109009399471353649330000016533948083973012098_);}
	.st1{fill:#FFFFFF;}
</style>
<g>
	<defs>
		<rect id="SVGID_1_" x="7" y="1" width="64" height="64"/>
	</defs>
	<clipPath id="SVGID_00000080889040216185136170000003573760292326530695_">
		<use xlink:href="#SVGID_1_"  style="overflow:visible;"/>
	</clipPath>
	<g style="clip-path:url(#SVGID_00000080889040216185136170000003573760292326530695_);">
		<path d="M39,65c17.7,0,32-14.3,32-32C71,15.3,56.7,1,39,1C21.3,1,7,15.3,7,33C7,50.7,21.3,65,39,65z"/>
		<path class="st1" d="M11.2,32.3C11.5,21.8,17.9,12,27.6,7.7c0.6-0.3,1.2-0.2,1.6,0.4c0.3,0.5,0.2,1.3-0.4,1.6
			c-1.1,0.5-2.2,1.1-3.2,1.7c-4,2.5-7.3,6.1-9.4,10.3c-2.2,4.3-3,9.3-2.5,14.1c0.9,9,6.8,16.9,15,20.5c8.4,3.8,18.4,2.5,25.7-3
			c7.3-5.5,11.1-14.7,9.9-23.7c-1.3-9.5-8-17.6-17-20.7c-0.6-0.2-1-0.8-0.8-1.4c0.2-0.6,0.8-1,1.4-0.8c1.2,0.4,2.4,0.9,3.6,1.5
			c9.3,4.6,15.3,14.3,15.3,24.7c0.1,9.9-5.3,19.3-13.9,24.2c-8.6,5-19.6,4.9-28.2-0.2C16.2,51.7,11,42.2,11.2,32.3L11.2,32.3z"/>
		<path class="st1" d="M33.7,18.1c0,0.7-0.5,1.3-1.2,1.3c-0.7,0-1.2-0.6-1.2-1.3V6.5c0-0.7,0.5-1.3,1.2-1.3c0.7,0,1.2,0.6,1.2,1.3
			V18.1z"/>
		<path class="st1" d="M44.6,18.1c0,0.7-0.5,1.3-1.2,1.3c-0.7,0-1.2-0.6-1.2-1.3V6.5c0-0.7,0.5-1.3,1.2-1.3c0.7,0,1.2,0.6,1.2,1.3
			V18.1z"/>
		<path class="st1" d="M30.6,24.1H26l2.3,0.6v15.4h-4.6V22.8l-0.8-0.6h16.9c0.6,0,1.2,0.1,1.6,0.4c0.5,0.3,0.7,0.6,0.7,0.9v16.7
			h-4.6V24.1h-4.6l2.3,0.6v15.4h-4.6L30.6,24.1L30.6,24.1z"/>
		<path class="st1" d="M50.5,31.1l-4.6,1.3h2.3v7.7h-4.6V22.8l-0.8-0.6h5.4v7.7l4.6-1.3h-2.3v-6.4h4.6v18h-4.6V31.1L50.5,31.1z"/>
		<path class="st1" d="M28.1,45.3c0,1.6-1.3,2.5-2.2,2.5h-2.7v-5H26C27.1,42.8,28.1,43.7,28.1,45.3L28.1,45.3z M26.6,45.3
			c0-0.8-0.5-1.1-1.2-1.1h-0.7v2.4h0.8C26.1,46.5,26.6,46,26.6,45.3z"/>
		<path class="st1" d="M30.2,44.1v0.5h2.5V46h-2.5v0.5h2.5v1.3h-4v-5h4v1.3L30.2,44.1L30.2,44.1z"/>
		<path class="st1" d="M33.2,46.5h2.4c0.2,0,0.3-0.1,0.3-0.3c0-0.2-0.1-0.3-0.3-0.3h-1.1c-0.8,0-1.4-0.6-1.4-1.6
			c0-1.2,0.7-1.6,1.5-1.6h2.7v1.3h-2.3c-0.2,0-0.3,0.1-0.3,0.2s0.1,0.3,0.3,0.3h1c0.9,0,1.5,0.6,1.5,1.6c0,1-0.7,1.6-1.5,1.6h-2.7
			L33.2,46.5z"/>
		<path class="st1" d="M37.9,42.8h1.5v5h-1.5V42.8z"/>
		<path class="st1" d="M40,45.3c0-1.5,1-2.6,2.4-2.6c1.4,0,2.3,1,2.3,2.1h-1.5c0-0.3-0.4-0.7-0.9-0.7c-0.5,0-1,0.4-1,1.1
			c0,0.7,0.5,1.1,1,1.1c0.4,0,0.6-0.1,0.8-0.4h-0.8v-0.5h2.4c0,1.3-1,2.5-2.3,2.5C41.1,47.9,40,46.8,40,45.3L40,45.3z"/>
		<path class="st1" d="M45.3,42.8h1.5l1.8,2.6h0v-2.6h1.5v5h-1.5l-1.8-2.5h-0.1v2.5h-1.5L45.3,42.8L45.3,42.8z"/>
		<path class="st1" d="M50.7,46.5h2.4c0.2,0,0.3-0.1,0.3-0.3c0-0.2-0.1-0.3-0.3-0.3H52c-0.8,0-1.4-0.6-1.4-1.6
			c0-1.2,0.7-1.6,1.5-1.6h2.7v1.3h-2.3c-0.2,0-0.3,0.1-0.3,0.2s0.1,0.3,0.3,0.3h1c0.9,0,1.5,0.6,1.5,1.6c0,1-0.7,1.6-1.5,1.6h-2.7
			L50.7,46.5z"/>
	</g>
</g>
</svg>
